!!!COM: Richard Strauss
!!!CNT: Deutscher
!!!TXO: Deutsche 
!!!OTL: "Breit' u2ber mein Haupt"...
!!!OPS: Opus 19
!!!ONM: No. 2
!!!LYR: A. Fr. Graf v. Schack
!!!ENC: Brian Bice
!!!YOR: Lieder, Complete Edition, vol. 1
!!!ODT: 1888/
!!NB: Vocal melody and text only encoded.
**kern	**silbe
*clefG2	*
*k[b-e-a-d-g-c-]	*
*M4/4	*
=1	=1
{4b-	{Briet'
12b-	u2-
12b-	-ber
12b-	mein
4.dd-	Haupt
8dd-	dein
=2	=2
4.gg-	schwar-
8ee-	-zes
4a-}	Haar,}
{8a-	{neig'
8a-	zu
=3	=3
4.b-	mir
8b-	dein
4.ee-	An-
8cc-	-ge-
=4	=4
[2a-	-sicht,
8a-]}	|}
{8dd-	{da
8dd-	stro2mt
16a-	in
16an	die
=5	=5
4b-	See-
8b-	-le
8b-	so
4.dd-	hell
8dd-	und
=6	=6
[2aa-	klar
8aa-]}	|}
{8ff	{mir
8ee-	dei-
8dd-	-ner
=7	=7
2.gg-	Au-
4ccn	-gen
=8	=8
2dd-}	Licht.}
8r	.
{8dd-	{Ich
8dd-	will
8dd-	nicht
=9	=9
4dd-	dro-
8dd-	-ben
8dd-	der
4.ff	Son-
8ccn	-ne
=10	=10
2.dd-}	Pracht,}
{8dd-	{noch
8dd-	der
=11	=11
4.dd-	Ster-
8dd-	-ne
[4gg-	leuch-
12gg-]	|
12gg-	-ten-
12gg-	-den
=12	=12
([2ee-	Kranz,
8ee-]}	|}
{8ff)	{ich
(12ff	will
12ee-)	|
12dd-	nur
=13	=13
4.dd-	dei-
8dd-	-ner
([4aa-	Lok-
12aa-]	|
12gg-)	|
12ff	-ken
=14	=14
[2b-	Nacht
12b-]}H	|}
{(12gg-h	{und
12aa-)	|
(12ff	dei-
12gg-)	|
12ee-	-ner
=15	=15
(8dd-	Blik-
4ee-	|
8dd-	|
8b-	|
dd-q	|
4cc-)	|
8a-	-ke
=16	=16
2g-}	Glanz.}
2r	.
*-	*-
